outputs/icons/navigation/unfold_more_sharp.svg

<svg xmlns="http://www.w3.org/2000/svg" width="1200" height="1200" fill="none"><g clip-path="url(#a)"><path fill="#000" d="M600 291.5 758.5 450l70.5-70.5L600 150 370.502 379.5l71 70.5zm0 617L441.502 750l-70.501 70.5L600 1050l229.5-229.5-71-70.5z"/></g><defs><clipPath id="a"><path fill="#fff" d="M0 0h1200v1200H0z"/></clipPath></defs></svg>

<svg width="1200" height="1200" viewBox="0 0 1200 1200" fill="none" xmlns="http://www.w3.org/2000/svg"><g clip-path="url(#clip0_316_1627)"><path d="M600 291.5L758.5 450L829 379.5L600 150L370.502 379.5L441.502 450L600 291.5ZM600 908.5L441.502 750L371.001 820.5L600 1050L829.5 820.5L758.5 750L600 908.5Z" fill="black"/></g><defs><clipPath id="clip0_316_1627"><path width="24" fill="white" d="M0 0H1200V1200H0V0z"/></clipPath></defs></svg>
